X: 43394
T: Wrong Medicine, The
R: reel
M: 4/4
K: Dmajor
A3 G3|:FAAB F2FA|FAAB EDBD|FAAB f3d|1 fedf edBA:|2 fedf edBd||
f(3BBBa (3BBB gB|fgfe gfeg|1 ,3 f(3BBBa (3BBB gB|
fgfe f3g:|2 f3d BAFA|FAAB ED B/c/d:|4 f3d BAFA|FAAB EDBD||

